X: 15
T: Off To California
Z: Féilim Borland
S: https://thesession.org/tunes/30#setting53665
R: hornpipe
M: 4/4
L: 1/8
K: Amaj
|: (3ABc Bc AFEA|Acea (3fff fg|agae fecA|(3BBB BA (3FFF F2 |
(3ABc Bc AFEA|Acea (3fff fg|agae fecA| BAGB AEAA :||
|:agfa gefe | (3fff fe fece | agae fecA | (3BBB BA (3FFF F2 |
(3ABc Bc AFEA|Acea (3fff fg|agae fecA| BAGB AE A2 :||

%-------------------- TUNE SEPARATOR --------------------%

